dist/images/icons/add-basket.svg

<svg width="18" height="18" viewBox="0 0 18 18" fill="none" xmlns="http://www.w3.org/2000/svg">
<path d="M1 1L2.79892 1.31923L3.63179 11.4928C3.69838 12.3237 4.37557 12.9612 5.18855 12.9586H14.6234C15.3992 12.9603 16.0573 12.3751 16.1672 11.5877L16.9879 5.77243C17.0796 5.12245 16.6394 4.51947 16.0063 4.42548C15.9509 4.4175 3.08779 4.41306 3.08779 4.41306" stroke="white" stroke-width="1.5" stroke-linecap="round" stroke-linejoin="round"/>
<path d="M10.8379 7.69104H13.2361" stroke="white" stroke-width="1.5" stroke-linecap="round" stroke-linejoin="round"/>
<path fill-rule="evenodd" clip-rule="evenodd" d="M4.80908 16.0325C5.06939 16.0325 5.27954 16.2493 5.27954 16.5158C5.27954 16.7832 5.06939 16.9999 4.80908 16.9999C4.54877 16.9999 4.33862 16.7832 4.33862 16.5158C4.33862 16.2493 4.54877 16.0325 4.80908 16.0325Z" fill="#363853" stroke="white" stroke-width="1.5" stroke-linecap="round" stroke-linejoin="round"/>
<path fill-rule="evenodd" clip-rule="evenodd" d="M14.5649 16.0325C14.8252 16.0325 15.0363 16.2493 15.0363 16.5158C15.0363 16.7832 14.8252 16.9999 14.5649 16.9999C14.3046 16.9999 14.0945 16.7832 14.0945 16.5158C14.0945 16.2493 14.3046 16.0325 14.5649 16.0325Z" fill="#363853" stroke="white" stroke-width="1.5" stroke-linecap="round" stroke-linejoin="round"/>
</svg>

<svg width="18" height="18" fill="none" xmlns="http://www.w3.org/2000/svg"><path d="M1 1l1.799.32.833 10.173c.066.83.744 1.468 1.557 1.466h9.434c.776.001 1.434-.584 1.544-1.371l.82-5.816c.093-.65-.348-1.253-.98-1.347a7017.87 7017.87 0 00-12.92-.012m7.751 3.278h2.398" stroke="#fff" stroke-width="1.5" stroke-linecap="round" stroke-linejoin="round"/><path fill-rule="evenodd" clip-rule="evenodd" d="M4.81 16.032c.26 0 .47.217.47.484S5.07 17 4.81 17a.477.477 0 01-.471-.484c0-.267.21-.483.47-.483zm9.755 0c.26 0 .471.217.471.484a.478.478 0 01-.471.484.477.477 0 01-.47-.484c0-.267.21-.483.47-.483z" fill="#363853" stroke="#fff" stroke-width="1.5" stroke-linecap="round" stroke-linejoin="round"/></svg>
